svgs/duotone/square-down-right.svg

<svg xmlns="http://www.w3.org/2000/svg" viewBox="0 0 448 512"><!--! Font Awesome Pro 6.3.0 by @fontawesome - https://fontawesome.com License - https://fontawesome.com/license (Commercial License) Copyright 2023 Fonticons, Inc. --><defs><style>.fa-secondary{opacity:.4}</style></defs><path class="fa-primary" d="M330.5 346.5c0 8.837-7.163 16-16 16h-158.4c-6.475 0-12.31-3.891-14.78-9.875c-2.484-5.98-1.104-12.86 3.471-17.44l45.25-45.25L122.1 222C109.6 209.5 109.7 189.3 122.2 176.8l22.63-22.63C157.3 141.7 177.5 141.6 190 154.1l67.92 67.92l45.25-45.25c4.574-4.578 11.46-5.957 17.44-3.469c5.988 2.473 9.877 8.305 9.877 14.78V346.5z"/><path class="fa-secondary" d="M384 32H64C28.65 32 0 60.65 0 96v320c0 35.34 28.65 64 64 64h320c35.35 0 64-28.66 64-64V96C448 60.65 419.3 32 384 32zM330.5 346.5c0 8.837-7.163 16-16 16h-158.4c-6.475 0-12.31-3.891-14.78-9.875c-2.484-5.98-1.104-12.86 3.471-17.44l45.25-45.25L122.1 222C109.6 209.5 109.7 189.3 122.2 176.8l22.63-22.63C157.3 141.7 177.5 141.6 190 154.1l67.92 67.92l45.25-45.25c4.574-4.578 11.46-5.957 17.44-3.469c5.988 2.473 9.877 8.305 9.877 14.78V346.5z"/></svg>

<svg xmlns="http://www.w3.org/2000/svg" viewBox="0 0 448 512"><!-- Font Awesome Pro 6.0.0-alpha2 by @fontawesome - https://fontawesome.com License - https://fontawesome.com/license (Commercial License) --><defs><style>.fa-secondary{opacity:.4}</style></defs><path d="M384 32H64C28.654 32 0 60.652 0 96V416C0 451.344 28.654 480 64 480H384C419.346 480 448 451.344 448 416V96C448 60.652 419.346 32 384 32ZM330.508 346.508C330.508 355.344 323.344 362.508 314.508 362.508H156.117C149.643 362.508 143.811 358.617 141.334 352.633C138.85 346.652 140.23 339.77 144.805 335.195L190.059 289.941L122.176 222.059C109.679 209.562 109.679 189.301 122.176 176.804L144.804 154.176C157.301 141.679 177.562 141.679 190.059 154.176L257.941 222.059L303.195 176.805C307.77 172.227 314.652 170.848 320.631 173.336C326.619 175.809 330.508 181.641 330.508 188.117V346.508Z" class="fa-secondary"/><path d="M330.704 346.508C330.704 355.344 323.541 362.508 314.704 362.508H156.314C149.839 362.508 144.007 358.617 141.53 352.633C139.046 346.652 140.427 339.77 145.001 335.195L190.255 289.941L122.373 222.059C109.876 209.562 109.876 189.301 122.373 176.804L145.001 154.176C157.497 141.679 177.759 141.679 190.255 154.176L258.138 222.059L303.392 176.805C307.966 172.227 314.849 170.848 320.827 173.336C326.815 175.809 330.704 181.641 330.704 188.117V346.508Z" class="fa-primary"/></svg>
